X: 79
T:Collier's Reel, The
M:C|
L:1/8
R:Reel
K:DMix
AG[|:FD (3EFG ~A3B|cAdB cAGB|Add^c d2 (3efg|fdec dcAG|!
FD (3EFG ~A3B|cAdB cAGB|Addc ABAG|1EFGE FDDE:|2EFGE FDDe|!
|:fdeg fdec|Addc Adde|fd (3efg fdec|AGAB c2cd|!
eaag efge|dfed cAGc|Addc ABAG|1EFGE FDDe:|2EFGE FDDE|]!
